src/assets/images/toolbox/github.svg

<svg
  width="35"
  height="34"
  viewBox="0 0 35 34"
  fill="transparent"
  xmlns="http://www.w3.org/2000/svg">
  <path
    stroke="black"
    stroke-width="1.25"
    stroke-linejoin="round"
    d="M17.5 1C13.5827 0.998 9.79254 2.38286 6.80829 4.9066C3.82403 7.43034 1.84056 10.9281 1.21302 14.7737C0.585481 18.6192 1.35487 22.5613 3.38341 25.8941C5.41196 29.2269 8.56717 31.7328 12.2841 32.963C13.1125 33.1155 13.4116 32.612 13.4116 32.2001V29.4157C8.80936 30.4074 7.85823 27.2188 7.85823 27.2188C7.55381 26.2099 6.89148 25.3452 5.99431 24.7853C4.49857 23.7707 6.10936 23.786 6.10936 23.786C6.63184 23.8587 7.13073 24.0491 7.56805 24.3425C8.00537 24.636 8.36958 25.0249 8.63294 25.4795C10.1057 27.9892 12.4682 27.2645 13.4347 26.845C13.511 26.0116 13.8835 25.2327 14.4855 24.648C10.819 24.2361 6.96845 22.8324 6.96845 16.5467C6.94415 14.916 7.55423 13.339 8.6713 12.1451C8.16379 10.7311 8.22145 9.17741 8.83237 7.80452C8.83237 7.80452 10.2131 7.36208 13.3656 9.48277C16.0675 8.75043 18.9172 8.75043 21.619 9.48277C24.7716 7.36208 26.1523 7.80452 26.1523 7.80452C26.7586 9.17846 26.8162 10.7304 26.3133 12.1451C27.4283 13.3398 28.0357 14.9169 28.0085 16.5467C28.0085 22.8477 24.1733 24.2284 20.4838 24.6404C20.8797 25.0393 21.1846 25.5183 21.3778 26.0448C21.5711 26.5713 21.6481 27.133 21.6037 27.6917V32.1925C21.6037 32.7341 21.9028 33.1384 22.7389 32.9553C26.452 31.7204 29.6022 29.2119 31.626 25.8786C33.6498 22.5454 34.4151 18.6048 33.785 14.7618C33.155 10.9187 31.1707 7.42399 28.1871 4.90269C25.2035 2.38138 21.4152 0.997997 17.5 1Z"
  />
</svg>

<svg xmlns="http://www.w3.org/2000/svg" width="35" height="34" fill="transparent" xmlns:v="https://vecta.io/nano">
  <path stroke="#000" stroke-width="1.25" stroke-linejoin="round"
    d="M17.5 1C13.583.998 9.793 2.383 6.808 4.907a16.38 16.38 0 0 0-5.595 9.867c-.628 3.845.142 7.788 2.17 11.12s5.184 5.839 8.901 7.069c.828.152 1.127-.351 1.127-.763v-2.784c-4.602.992-5.553-2.197-5.553-2.197a4.35 4.35 0 0 0-1.864-2.434c-1.496-1.015.115-.999.115-.999a3.48 3.48 0 0 1 1.459.556c.437.293.802.682 1.065 1.137 1.473 2.51 3.835 1.785 4.802 1.365a3.51 3.51 0 0 1 1.051-2.197c-3.666-.412-7.517-1.816-7.517-8.101-.024-1.631.586-3.208 1.703-4.402a5.83 5.83 0 0 1 .161-4.341s1.381-.442 4.533 1.678c2.702-.732 5.552-.732 8.253 0 3.153-2.121 4.533-1.678 4.533-1.678.606 1.374.664 2.926.161 4.341 1.115 1.195 1.722 2.772 1.695 4.402 0 6.301-3.835 7.682-7.525 8.094a3.9 3.9 0 0 1 .894 1.404c.193.527.27 1.088.226 1.647v4.501c0 .542.299.946 1.135.763 3.713-1.235 6.863-3.743 8.887-7.077s2.789-7.274 2.159-11.117a16.38 16.38 0 0 0-5.598-9.859C25.204 2.381 21.415.998 17.5 1z" />
</svg>
